X: 32914
T: Pour The Tatties
R: reel
M: 4/4
K: Dmixolydian
d-|dcAG FGAc|dG~G2 deed|ABcA d2cA|BGdG c=F~F2|
AcAG FGAc|dG~G2 deed|ABcA d2cA|1 BGAG FDD:|2 BGAG FDDD||
|:GG2c-c2AG|FGAc dedc|GGdG cGAG|FD~D2 FDBA|
GGdG c2AG|FGAc dedc|=Fcef edcA|Ace=f edcA:|

